X:1
T:Tell It Far and Wide
T:Tell It Far and Wide
T:William A. May
T:Mary A. Crocker, 1894
T:Public Domain Courtesy of the Cyber Hymnal™
T:Public Domain Courtesy of the Cyber Hymnal™
C:William A. May
Z:Public Domain
Z:Courtesy of the Cyber Hymnal™
%%score ( 1 2 ) ( 3 4 )
L:1/8
Q:1/4=100
M:2/4
K:G
V:1 treble 
V:2 treble 
V:3 bass 
V:4 bass 
V:1
 DD | [DG][DG] [GB][GB] | [Gd][DB] [DA][DG] | [CE]2 [EG]2 | [B,D]2 DD | [DF][DF] [FA][FA] | %6
w: 1.~Tell it!|let the peo- ple|hear it, “Je- sus|saves from|sin!” Let the|breez- es bear the|
w: 2.~Tell it|to the lone and|wea- ry, To the|blithe and|gay; To the|ag- èd with their|
w: 3.~Free the|mer- cy, full the|par- don, Je- sus|died to|give! Sweet the|wel- come that the|
 [Fc][FA] [DF]D | [DG]2 [DA]2 | !fermata![DB]2 [GB][GB] | [Gd][GB] [DA][DG] | [EA][EG] [DF][CE] | %11
w: mes- sage, “Je- sus|makes men|clean; Je- sus|shed His blood to|save us!” Tell it|
w: bur- dens, To the|child at|play. “There is|full and free sal-|va- tion!” Hear the|
w: sin- ner Sure- ly|will re-|ceive, Wea- ry,|weak and hea- vy|la- den, Come to|
 D2 (GB) | [Dd]2 [Ec][Ec] | [DB][GB] [Gc][GB] | [FA][FA] [FB][FA] | [DG]2 [EG]2 | !fermata![DG]2 |: %17
w: far and *|wide, “In no|o- ther is re-|demp- tion Save the|Cru- ci-|fied!”|
w: bless- èd *|word, “There is|mer- cy and true|heal- ing In Christ’s|pre- cious|blood!”|
w: Him to- *|day, Let the|cleans- ing blood of|Je- sus Wash your|sins a-|way.|
"^Refrain" [Gd][Gd] | [Gd][GB] [Gd]2- | [Gd]2 [GB][GB] | [GB][DG] [GB]2- | [GB]2 [Gd][Gd] | %22
w: |||||
w: Tell it|far and wide,|* Tell it|far and wide,|* “In no|
w: |||||
 [Ge][Gd] [Fc][GB] |1 [Fd][Fc] [DB][CA] | [B,G]2 [DA]2 | !fermata![DB]2 :|2 [FB][DA] || %27
w: |||||
w: o- ther is re-|demp- tion, Save the|Cru- ci-|fied;|Save the|
w: |||||
 [DG]2 [DA]2 | !fermata![DG]2 |] %29
w: ||
w: Cru- ci-|fied.”|
w: ||
V:2
 DD | x4 | x4 | x4 | x2 DD | x4 | x3 D | x4 | x4 | x4 | x4 | D2 E2 | x4 | x4 | x4 | x4 | x2 |: x2 | %18
 x4 | x4 | x4 | x4 | x4 |1 x4 | x4 | x2 :|2 x2 || x4 | x2 |] %29
V:3
 [G,B,][G,B,] | [G,,B,][G,,B,] [G,,D][G,,D] | [G,,B,][G,,G,] [A,,F,][B,,F,] | [C,G,]2 [C,G,]2 | %4
 G,2 [G,,B,][G,,B,] | [D,A,][D,A,] [D,D][D,D] | [D,A,][D,C] [D,B,][C,F,] | [B,,G,]2 [D,F,]2 | %8
 !fermata![G,,G,]2 [G,D][G,D] | [G,B,][G,D] [G,C][G,B,] | [C,C][C,C] [C,G,][C,G,] | %11
 [B,,G,]2 [E,G,]2 | [B,,G,]2 [C,G,][C,G,] | [D,G,][D,D] [D,E][D,D] | [D,C][D,C] [D,D][D,D] | %15
 [G,B,]2 [G,C]2 | !fermata![G,B,]2 |: [G,B,][G,B,] | [G,B,][G,D] [G,B,]2- | [G,B,]2 [G,D][G,D] | %20
 [G,D][G,B,] [G,D]2- | [G,D]2 [G,B,][B,D] | C[B,D] [A,D][G,D] |1 [D,D][D,A,] [D,G,][D,F,] | %24
 [E,G,]2 [D,F,]2 | !fermata![G,,G,]2 :|2 [D,D][D,C] || [D,B,]2 [D,C]2 | !fermata![G,,B,]2 |] %29
V:4
 x2 | x4 | x4 | x4 | G,2 x2 | x4 | x4 | x4 | x4 | x4 | x4 | x4 | x4 | x4 | x4 | x4 | x2 |: x2 | %18
 x4 | x4 | x4 | x4 | C x3 |1 x4 | x4 | x2 :|2 x2 || x4 | x2 |] %29

